X:1
T:Glory Ever Be to Jesus
T:Ira David Sankey
T:Glory Ever Be to Jesus
T:Public Domain
T:Public Domain
C:Ira David Sankey
Z:Public Domain
%%score ( 1 2 ) ( 3 4 )
L:1/8
M:4/4
K:Ab
V:1 treble 
V:2 treble 
V:3 bass 
V:4 bass 
V:1
 [CE]2 [EA]2 [EA]3 [EB] | ([EA][DG])(FG) [CA]2 [CE]2 | E2 [EB]2 [EB]3 [Ec] | %3
w: 1.~Glo- ry ev- er|be * to * Je- sus,|own well be- lov-|
w: 2.~Oh the wear- y|days * of * wand- ’ring,|ing, hop- ing for|
w: 3.~In His safe and|ho- * ly * keep- ing,|the sha- dow of|
 ([DB][CA])([DG][CA]) (B-GFE) x2 | [CE]2 [EA]2 [EA]3 [FB] | ([EA][DG])(FG) [CA]2 [EB]2 | %6
w: Son; * By * His * * *|He hath re- deemed|us, * “It * is fin-|
w: light; * These * at * * *|all lie be- hind|us, * Je- * sus is|
w: wing, * Glad- * ly * * *|His love con- fid-|ing, * May * our souls|
 [EB]2 [_Ge]2 (ed)(cB) | [EA]2 [DG]2 [CA]4 ||"^Refrain" [EB]2 [EB]2 [EB]3 [Ec] | %9
w: all is done. * * *|||
w: strength and might. * Saved *|through faith in|Je- sus, Saved by|
w: prais- es sing. * * *|||
 (dc)(Bc) [Ed]2 [EB]2 | [Ec]2 [Ec]2 [Ec]3 [Ee] | ([Ge][F=d])(cd) (e-_dBG) x2 | %12
w: |||
w: His * own * pre- cious|we in His love|a- * bid- * ing, * * *|
w: |||
 [CE]2 [EA]2 [EA]3 [FB] | ([EA][DG])(FG) [CA]2 [EB]2 | [Ec]2 [_Ge]2 (ed)(cB) | [EA]2 [DG]2 [CA]4 |] %16
w: ||||
w: on to know the|Lord. * * * * *|||
w: ||||
V:2
 x8 | x2 D2 x4 | E2 x6 | x4 E3 B3 | x8 | x2 D2 x4 | x4 F2 F2 | x8 || x8 | E2 E2 x4 | x8 | %11
w: |God’s|èd|grace *||ished,”||||||
w: |Long-|the|last *||our|by grace|||blood, May||
w: |’Neath|His|in *||His||||||
 x2 A2 G3 e3 | x8 | x2 D2 x4 | x4 F2 F2 | x8 |] %16
w: |||||
w: Fol- low *|||||
w: |||||
V:3
 A,2 [A,C]2 [A,C]3 [D,D] | (CB,)(A,B,) [A,,A,]2 [A,,A,]2 | [E,G,]2 [E,G,]2 [E,G,]3 [E,A,] | %3
 (G,A,)(B,A,) [E,G,]4 x2 | A,2 [A,C]2 [A,C]3 [D,D] | (CB,)(A,B,) [F,A,]2 [E,G,]2 | %6
 A,2 [C,A,]2 (A,B,)(ED) | [E,C]2 [E,B,]2 [A,,A,]4 || [E,G,]2 [E,G,]2 [E,G,]3 [E,A,] | %9
 (B,A,)(G,A,) [E,B,]2 [E,G,]2 | A,2 A,2 A,3 [A,C] | B,2 [B,,B,]2 [E,B,]4 x2 | %12
 A,2 [A,C]2 [A,C]3 [D,D] | (CB,)(A,B,) [F,A,]2 [E,G,]2 | A,2 [C,A,]2 (A,B,)(ED) | %15
 [E,C]2 [E,B,]2 [A,,A,]4 |] %16
V:4
 A,2 x6 | E,2 E,2 x4 | x8 | E,2 E,2 x6 | A,2 x6 | E,2 E,2 x4 | A,2 D,2 D,2 x2 | x8 || x8 | %9
 E,2 E,2 x4 | A,2 A,2 A,3 x | B,2 x8 | A,2 x6 | E,2 E,2 x4 | A,2 D,2 D,2 x2 | x8 |] %16

